server/website/public/icons/base/contact.svg

<svg width="48" height="48" viewBox="0 0 48 48" fill="none" xmlns="http://www.w3.org/2000/svg">
<g clip-path="url(#clip0_1398_24932)">
<path d="M45.6 0H9.6C8.32696 0 7.10606 0.505713 6.20589 1.40589C5.30571 2.30606 4.8 3.52696 4.8 4.8V12H0V16.8H4.8V21.6H0V26.4H4.8V31.2H0V36H4.8V43.2C4.8 44.473 5.30571 45.6939 6.20589 46.5941C7.10606 47.4943 8.32696 48 9.6 48H45.6C46.2365 48 46.847 47.7471 47.2971 47.2971C47.7471 46.847 48 46.2365 48 45.6V2.4C48 1.76348 47.7471 1.15303 47.2971 0.702944C46.847 0.252856 46.2365 0 45.6 0ZM26.4 7.1976C30.3552 7.1976 33.6 10.44 33.6 14.3976C33.5943 16.3056 32.834 18.1339 31.485 19.4833C30.1361 20.8327 28.308 21.5937 26.4 21.6C22.4472 21.6 19.2 18.3528 19.2 14.3976C19.2 10.44 22.4472 7.1976 26.4 7.1976ZM40.8 38.4H12V36.6C12 31.2744 18.492 25.8 26.4 25.8C34.308 25.8 40.8 31.2744 40.8 36.6V38.4Z" fill="black"/>
</g>
<defs>
<clipPath id="clip0_1398_24932">
<rect width="48" height="48" fill="white"/>
</clipPath>
</defs>
</svg>

<svg width="48" height="48" fill="none" xmlns="http://www.w3.org/2000/svg"><g clip-path="url(#prefix__clip0_1398_24932)"><path d="M45.6 0h-36a4.8 4.8 0 00-4.8 4.8V12H0v4.8h4.8v4.8H0v4.8h4.8v4.8H0V36h4.8v7.2A4.8 4.8 0 009.6 48h36a2.4 2.4 0 002.4-2.4V2.4A2.4 2.4 0 0045.6 0zM26.4 7.198c3.955 0 7.2 3.242 7.2 7.2a7.224 7.224 0 01-7.2 7.202c-3.953 0-7.2-3.247-7.2-7.202 0-3.958 3.247-7.2 7.2-7.2zM40.8 38.4H12v-1.8c0-5.326 6.492-10.8 14.4-10.8s14.4 5.474 14.4 10.8v1.8z" fill="#000"/></g><defs><clipPath id="prefix__clip0_1398_24932"><path fill="#fff" d="M0 0h48v48H0z"/></clipPath></defs></svg>
